svg/archive_edit_outline.svg

<svg xmlns="http://www.w3.org/2000/svg" viewBox="0 0 24 24"><path d="M18 12.13V10h2v.3c-.22.12-.43.26-.61.44zM9.5 11c-.28 0-.5.22-.5.5V13h6v-1.5c0-.28-.22-.5-.5-.5zM6 10H4v11h7v-1.87l.13-.13H6zm15-1H3V3h18zm-2-4H5v2h14zm-6 14.96V22h2.04l6.13-6.12-2.04-2.05zm9.85-6.49-1.32-1.32c-.2-.2-.53-.2-.72 0l-.98.98 2.04 2.04.98-.98c.2-.19.2-.52 0-.72"/></svg>

<svg xmlns="http://www.w3.org/2000/svg" id="mdi-archive-edit-outline" viewBox="0 0 24 24"><path d="M18 12.13V10H20V10.3C19.78 10.42 19.57 10.56 19.39 10.74L18 12.13M9.5 11C9.22 11 9 11.22 9 11.5V13H15V11.5C15 11.22 14.78 11 14.5 11H9.5M6 10H4V21H11V19.13L11.13 19H6V10M21 9H3V3H21V9M19 5H5V7H19V5M13 19.96V22H15.04L21.17 15.88L19.13 13.83L13 19.96M22.85 13.47L21.53 12.15C21.33 11.95 21 11.95 20.81 12.15L19.83 13.13L21.87 15.17L22.85 14.19C23.05 14 23.05 13.67 22.85 13.47Z" /></svg>
